X: 1
T:Amazing Grace  "arr: Dave Palladino"
M:3/4
L:1/8
Q:80
C: Melody
S:Hymn
K:HP
{g}Ad{gdG}d4|
{g}fe/2d/2{gfg}f4|
{g}fe{Gdc}d4|  !
{g}B2{G}A4|
{g}Ad{gdG}d4|
{g}fe/2d/2{gfg}f4|  !
{g}ef{ag}a4|
{g}a2{ag}a4|]
fa{g}a4|  !
fe/2d/2{gfg}f4|
{g}fe{Gdc}d4|
{g}B2{G}A4|  !
{g}Ad{gdG}d4|
{g}fe/2d/2{gfg}f4|
e2{Gdc}d4|  !
-d2{gdG}d4|]
